!!COM: Schubert, Franz
!!!CNT: Deutscher
!!!TXO: Deutsch
!!!LYR: Friedrich Ru2ckert
!!!OTL: "Greisengesang"
!!!OPS: Op. 60
!!!ONM: No. 1
!!!ODT: 1823/
!!NB: Vocal melody only encoded.
!!NB: Original key
**kern	**silbe
*staff1	*
*clefG2	*
*k[f#c#]	*
*M4/4	*
*MM[Massig]	*
=5	=5
2r	.
4r	.
{4f#	{Der
=6	=6
4.b	Frost
8b	hat
4a	mir
4f#	be-
=7	=7
2g	-rei-
4d	-fet
8d	des
8e	|
=8	=8
2f#	Hau-
2e	-ses
=9	=9
2d}	Dach;}
4r	.
{4f#	{doch
=10	=10
4.b	warm
8b	ist
4a#	mir's
4g#	ge-
=11	=11
4f#	-blie-
8g#	|
8a#	|
4b	-ben
4cc#	im
=12	=12
2.dd#	Wohn-
4cc#	-ge-
=13	=13
2.b}	-mach.}
{4f#	{Der
=14	=14
4.b	Win-
8b	-ter
4a	hat
4f#	die
=15	=15
2g	Schei-
4d	-tel
8d	mir
8e	|
=16	=16
2f#	weiss
2e	ge-
=17	=17
2d}	-deckt;}
4r	.
{4f#	{doch
=18	=18
4.b	fliesst
8b	das
4a#	Blut,
4g#	das
=19	=19
4f#	ro-
8g#	|
8a#	|
4b	-te,
4cc#	durch's
=20	=20
2.dd#	Herz-
4cc#	-ge-
=21	=21
2.b}	-mach.}
{8b	{Der
8dd	|
=22	=22
4cc#	Ju-
4f#	-gend-
4f#	-flor
8g	der
8b	|
=23	=23
2a	Wan-
4d}	-gen,}
{8b	{die
8dd	|
=24	=24
4cc#	Ro-
4f#	-sen
4f#	sind
8g	ge-
8b	|
=25	=25
2a	-gan-
4d}	-gen,}
{8.e	{all'
16g	ge-
=26	=26
4f#	-gan-
8.e	-gen
16d	ein-
4c#	-an-
4B	-der
=27	=27
1f#}	nach.}
=28	=28
1r	.
=29	=29
1r	.
=30	=30
{1g	{Wo
=31	=31
4.g#	sind
8g#	sie
4.a	hin-
8a	-ge-
=32	=32
bq	-gan-
2a#	|
2a#}	-gen?}
=33	=33
2r	.
4r	.
{4f#	{In's
=34	=34
1b	Herz
=35	=35
1f#	hin-
=36	=36
2.d#}	-ab.}
4r	.
=37	=37
4r	.
{4d#	{Da
[2d#	blu2hn
=38	=38
4d#]	|
4g#	sie
4a#	nach
4b	Ver-
=39	=39
2cc#	-lan-
dd#q	|
8cc#	|
8b#	|
8cc#	|
8dd#	|
=40	=40
2b}	-gen,}
4r	.
{4f#	{wie
=41	=41
2f#	vor
8e#	so
8f#	|
8g#	|
8f#	|
=42	=42
2d#	nach,
4a#	nach
4b	Ver-
=43	=43
2cc#	-lan-
dd#q	|
8cc#	|
8b#	|
8cc#	|
8dd#	|
=44	=44
2b}	-gen,}
{8dd#	{wie
8a#	|
8b	|
8g#	|
=45	=45
1f#	vor
=46	=46
8b	so
8a#	|
8g#	|
8f#	|
eq	|
f#q	|
8e	|
8d#	|
8e	|
8c#	|
=47	=47
[1B	nach.
=48	=48
2B]}	|}
2r	.
=49	=49
1r	.
=50	=50
1r	.
=51	=51
1r	.
=52	=52
1r	.
=53	=53
2r	.
4r	.
{4f#	{Sind
=54	=54
4.b	al-
8b	-le
4a	Freu-
4f#	-den-
=55	=55
2g	-stro2-
4d	-me
8B	der
8c#	|
=56	=56
2d	Welt
2e	ver-
=57	=57
2f#}	-siegt?}
4r	.
{4f#	{Noch
=58	=58
4.b	fliesst
8b	mir
4a#	durch
4g#	den
=59	=59
4f#	Bu-
8g#	|
8a#	|
4b	-sen
4cc#	ein
=60	=60
2.dd#	stil-
4cc#	-ler
=61	=61
2.b}	Bach.}
{4f#	{Sind
=62	=62
4.b	al-
8b	-le
4a	Nach-
4f#	-ti-
=63	=63
2g	-gal-
4d	-len
8B	der
8c#	|
=64	=64
2d	Flur
2e	ver-
=65	=65
2f#}	-stummt?}
4r	.
{4f#	{Noch
=66	=66
4.b	ist
8b	bei
4a#	mir
4g#	im
=67	=67
4f#	stil-
8g#	|
8a#	|
4b	-len
4cc#	hier
=68	=68
2.dd#	ei-
4cc#	-ne
=69	=69
2.b}	wach.}
{8b	{Sie
8dd	|
=70	=70
4cc#	sin-
4f#	-get:
4f#	Herr
8g	des
8b	|
=71	=71
2a	Hau-
4d}	-ses!}
{8b	{ver-
8dd	|
=72	=72
4cc#	-schleuss
4f#	dein
4f#	Tor,
8g	dass
8b	|
=73	=73
4a	nicht
4d	die
4d}	Welt,}
{8e	{die
8g	|
=74	=74
4f#	kal-
8.e	-te,
16d	dring'
4c#	ins
4B	Ge-
=75	=75
1f#}	-mach.}
=76	=76
1r	.
=77	=77
2r	.
4r	.
{4f#	{Schleuss
=78	=78
4.g	aus
8g	den
4g	rau-
4g	-hen
=79	=79
2g#	O-
4a	-dem
4a	der
=80	=80
bq	Wirk-
4.a#	|
8a#	-lich-
2a#}	-keit,}
=81	=81
2r	.
4r	.
{4f#	{und
=82	=82
2.b	nur
4b	dem
=83	=83
2.f#	Duft
4f#	der
=84	=84
eq	Tra2u-
2d#	|
2d#}	-me,}
=85	=85
4r	.
{4d#	{und
[2d#	nur
=86	=86
4d#]	|
4g#	dem
4a#	Duft
4b	der
=87	=87
2cc#	Tra2u-
dd#q	|
8cc#	|
8b#	|
8cc#	|
8dd#	|
=88	=88
2b}	-me}
4r	.
{4f#	{gib
=89	=89
2f#	Dach
8e#	und
8f#	|
8g#	|
8f#	|
=90	=90
4.d#	Fach,
8f#	dem
4a#	Duft
4b	der
=91	=91
2cc#	Tra2u-
dd#q	|
8cc#	|
8b#	|
8cc#	|
8dd#	|
=92	=92
2b}	-me}
{8dd#	{gib-
8a#	|
8b	|
8g#	|
=93	-93
1f#	Dach
=94	=94
8b	und
8a#	|
8g#	|
8f#	|
eq	|
f#q	|
8e	|
8d#	|
8e	|
8c#	|
=95	=95
[1B	Fach.
=96	=96
2B]}	|}
2r	.
==	==
*-	*-
